src/assets/buttons/website.svg

<svg height="55" viewBox="0 0 55 55" width="55" xmlns="http://www.w3.org/2000/svg"><g fill="none"><rect fill="#141414" height="55" rx="2" width="55"/><path d="m27.5007941 11.328125c8.9168636 0 16.1710809 7.2545952 16.1710809 16.171875s-7.2542173 16.171875-16.1710809 16.171875c-8.9192459 0-16.1726691-7.253801-16.1726691-16.171875s7.2534232-16.171875 16.1726691-16.171875zm.0000068 1.7259325c-7.9659135 0-14.4467434 6.4811674-14.4467434 14.4459425s6.4808299 14.4459425 14.4467434 14.4459425c7.9635108 0 14.4451416-6.4819684 14.4451416-14.4459425s-6.4816308-14.4459425-14.4451416-14.4459425zm13.6654262 14.5063917c0 3.192202-1.0596021 6.1355724-2.8256056 8.4875419-.4998123-.3988122-1.0312794-1.4776504-.5314671-2.595688.5048104-1.124855.6364277-3.7290646.5198048-4.7431384-.1099587-1.0123695-.6247654-3.4512595-2.0225738-3.4751201-1.3961424-.0204519-2.3541159-.4925501-3.1838044-2.1866498-1.7210203-3.5245456 3.2304536-4.2011629 1.5094332-6.1509114-.4814859-.5487929-2.9705511 2.2531185-3.3354141-1.4810591-.0233246-.2675791.2249155-.6680956.5597898-1.0839511 5.404637 1.857715 9.3098372 7.0848819 9.3098372 13.228976zm-15.32921-13.9220563c-.3358167.6257692-1.221619.8796808-1.7596111 1.3498267-1.1719318 1.0140083-1.6756569.8731283-2.30617 1.846183-.6356531.9730548-2.6848204 2.3736639-2.6848204 3.0780638s1.0348638 1.5332984 1.5522957 1.3727607c.5174319-.1638139 1.8829723-.1539851 2.6848204.1146698.8035615.2719311 6.7060544.5438622 4.8247954 5.3141239-.596246 1.516917-3.2091057 1.2613672-3.9047261 3.7726348-.1045144.3685813-.4660314 1.9428332-.4883049 2.4572089-.0428338.7961357.5893926 3.7972069-.2141689 3.7972069-.8069881 0-2.9778034-2.6849103-2.9778034-3.1714377 0-.4865273-.561979-2.1918303-.561979-3.6530506 0-1.4595821-2.6008663-1.4366482-2.6008663-3.3778432 0-1.7495328 1.4100876-2.6210229 1.0931178-3.4613884-.3101165-.835451-2.7876215-.8632994-3.820772-.9665022 1.8041582-4.4737584 6.0481278-7.7942668 11.1641928-8.4724564zm-2.7384835 27.1056932c.8356795-.5052113.9206062-1.1580998 1.678153-1.1911328.8662531-.0446918 1.5711453-.386681 2.5478031-.6334573.8662531-.2156863 2.4170159-1.2222227 3.7809399-1.3504687 1.151607-.1068716 3.4225488.0680093 4.0340216 1.33881-2.1996034 1.6730266-4.8374289 2.6484731-7.6671889 2.6484731-1.5269833 0-2.997915-.289525-4.3737287-.8122243z" fill="#fff"/></g></svg>

<svg xmlns="http://www.w3.org/2000/svg" width="55" height="55" viewBox="0 0 55 55">
  <g fill="none">
    <rect width="55" height="55" fill="#141414" rx="2"/>
    <path fill="#FFF" d="M27.5007941,11.328125 C36.4176577,11.328125 43.671875,18.5827202 43.671875,27.5 C43.671875,36.4172798 36.4176577,43.671875 27.5007941,43.671875 C18.5815482,43.671875 11.328125,36.418074 11.328125,27.5 C11.328125,18.581926 18.5815482,11.328125 27.5007941,11.328125 Z M27.5008009,13.0540575 C19.5348874,13.0540575 13.0540575,19.5352249 13.0540575,27.5 C13.0540575,35.4647751 19.5348874,41.9459425 27.5008009,41.9459425 C35.4643117,41.9459425 41.9459425,35.4639741 41.9459425,27.5 C41.9459425,19.5360259 35.4643117,13.0540575 27.5008009,13.0540575 Z M41.1662271,27.5604492 C41.1662271,30.7526512 40.106625,33.6960216 38.3406215,36.0479911 C37.8408092,35.6491789 37.3093421,34.5703407 37.8091544,33.4523031 C38.3139648,32.3274481 38.4455821,29.7232385 38.3289592,28.7091647 C38.2190005,27.6967952 37.7041938,25.2579052 36.3063854,25.2340446 C34.910243,25.2135927 33.9522695,24.7414945 33.122581,23.0473948 C31.4015607,19.5228492 36.3530346,18.8462319 34.6320142,16.8964834 C34.1505283,16.3476905 31.6614631,19.1496019 31.2966001,15.4154243 C31.2732755,15.1478452 31.5215156,14.7473287 31.8563899,14.3314732 C37.2610269,16.1891882 41.1662271,21.4163551 41.1662271,27.5604492 Z M25.8370171,13.6383929 C25.5012004,14.2641621 24.6153981,14.5180737 24.077406,14.9882196 C22.9054742,16.0022279 22.4017491,15.8613479 21.771236,16.8344026 C21.1355829,17.8074574 19.0864156,19.2080665 19.0864156,19.9124664 C19.0864156,20.6168663 20.1212794,21.4457648 20.6387113,21.2852271 C21.1561432,21.1214132 22.5216836,21.131242 23.3235317,21.3998969 C24.1270932,21.671828 30.0295861,21.9437591 28.1483271,26.7140208 C27.5520811,28.2309378 24.9392214,27.975388 24.243601,30.4866556 C24.1390866,30.8552369 23.7775696,32.4294888 23.7552961,32.9438645 C23.7124623,33.7400002 24.3446887,36.7410714 23.5411272,36.7410714 C22.7341391,36.7410714 20.5633238,34.0561611 20.5633238,33.5696337 C20.5633238,33.0831064 20.0013448,31.3778034 20.0013448,29.9165831 C20.0013448,28.457001 17.4004785,28.4799349 17.4004785,26.5387399 C17.4004785,24.7892071 18.8105661,23.917717 18.4935963,23.0773515 C18.1834798,22.2419005 15.7059748,22.2140521 14.6728243,22.1108493 C16.4769825,17.6370909 20.7209521,14.3165825 25.8370171,13.6383929 Z M23.0985336,40.7440861 C23.9342131,40.2388748 24.0191398,39.5859863 24.7766866,39.5529533 C25.6429397,39.5082615 26.3478319,39.1662723 27.3244897,38.919496 C28.1907428,38.7038097 29.7415056,37.6972733 31.1054296,37.5690273 C32.2570366,37.4621557 34.5279784,37.6370366 35.1394512,38.9078373 C32.9398478,40.5808639 30.3020223,41.5563104 27.4722623,41.5563104 C25.945279,41.5563104 24.4743473,41.2667854 23.0985336,40.7440861 Z"/>
  </g>
</svg>
